src/assets/developersPage/contribute.1.svg

<svg width="318" height="300" viewBox="0 0 318 300" fill="none" xmlns="http://www.w3.org/2000/svg">
<rect width="318" height="300" fill="#E5E5E5"/>
<rect x="-710" y="-222" width="2162" height="905" fill="white"/>
<path d="M162.83 286.124C218.756 286.124 264.093 278.105 264.093 268.214C264.093 258.322 218.756 250.303 162.83 250.303C106.904 250.303 61.5664 258.322 61.5664 268.214C61.5664 278.105 106.904 286.124 162.83 286.124Z" fill="#F2F2F2"/>
<path d="M99.3574 104.493C94.0457 84.6693 118.807 60.8105 154.664 51.2027C190.521 41.5949 223.895 49.8764 229.206 69.6999" stroke="#3F3D56" stroke-width="2" stroke-miterlimit="10"/>
<path d="M186.614 55.8196L133.795 69.9725C118.63 55.1653 113.913 37.5588 119.642 17.153L172.461 3.00005C162.572 24.5206 167.289 42.1271 186.614 55.8196Z" fill="#E6E6E6"/>
<path d="M163.519 12.7832L133.756 20.7583L134.767 24.5311L164.53 16.556L163.519 12.7832Z" fill="#EB850E"/>
<path d="M163.686 24.2496L124.281 34.8081L124.618 36.0657L164.023 25.5072L163.686 24.2496Z" fill="white"/>
<path d="M163.686 30.9766L124.281 41.5352L124.618 42.7928L164.023 32.2342L163.686 30.9766Z" fill="white"/>
<path d="M163.686 37.7037L124.281 48.2622L124.618 49.5198L164.023 38.9613L163.686 37.7037Z" fill="white"/>
<path d="M219.356 70.9966C224.925 91.7803 200.372 116.417 164.515 126.025C128.658 135.633 95.0758 126.573 89.5068 105.79" stroke="#3F3D56" stroke-width="2" stroke-miterlimit="10"/>
<path d="M210.9 113.194C198.485 124.91 180.818 134.72 160.104 140.27C140.244 145.592 120.851 146.121 104.647 142.685" stroke="#3F3D56" stroke-width="2" stroke-miterlimit="10"/>
<path d="M184.33 30.79C213.894 30.6489 237.842 41.346 244.71 59.6623" stroke="#3F3D56" stroke-width="2" stroke-miterlimit="10"/>
<path d="M80.2287 74.2406C82.5905 64.4407 89.0748 54.6358 98.6637 45.8686" stroke="#3F3D56" stroke-width="2" stroke-miterlimit="10"/>
<path d="M183.858 117.97L154.094 125.945L155.105 129.718L184.869 121.743L183.858 117.97Z" fill="#EB850E"/>
<path d="M191.619 135.078L152.214 145.637L152.551 146.894L191.956 136.336L191.619 135.078Z" fill="white"/>
<path d="M118.808 119.984L65.9882 134.137C50.8236 119.329 46.1059 101.723 51.8352 81.3171L104.655 67.1641C94.7651 88.6846 99.4828 106.291 118.808 119.984Z" fill="#F2F2F2"/>
<path d="M93.9773 76.9473L64.2139 84.9224L65.2248 88.6952L94.9882 80.7201L93.9773 76.9473Z" fill="#EB850E"/>
<path d="M97.3987 86.461L57.9937 97.0195L58.3306 98.2771L97.7357 87.7186L97.3987 86.461Z" fill="white"/>
<path d="M97.3987 93.188L57.9937 103.747L58.3306 105.004L97.7357 94.4456L97.3987 93.188Z" fill="white"/>
<path d="M97.3987 99.9146L57.9937 110.473L58.3306 111.731L97.7357 101.172L97.3987 99.9146Z" fill="white"/>
<path d="M97.3987 106.642L57.9937 117.2L58.3306 118.458L97.7357 107.899L97.3987 106.642Z" fill="white"/>
<path d="M210.345 111.048L263.165 96.8946C268.894 76.4889 264.177 58.8823 249.012 44.0751L196.192 58.228C215.517 71.9205 220.235 89.5271 210.345 111.048Z" fill="#F2F2F2"/>
<path d="M249.424 50.6738L219.661 58.6489L220.672 62.4217L250.435 54.4467L249.424 50.6738Z" fill="#EB850E"/>
<path d="M256.317 60.1871L216.912 70.7456L217.249 72.0032L256.654 61.4447L256.317 60.1871Z" fill="white"/>
<path d="M178.55 86.2314H182.254C182.254 86.2314 185.65 112.47 183.18 114.939C180.711 117.409 173.92 118.952 172.994 114.939C172.068 110.926 172.994 96.1094 172.994 96.1094L178.55 86.2314Z" fill="#EB850E"/>
<path d="M154.318 89.7813C166.763 89.7813 176.852 77.965 176.852 63.3887C176.852 48.8125 166.763 36.9961 154.318 36.9961C141.873 36.9961 131.784 48.8125 131.784 63.3887C131.784 77.965 141.873 89.7813 154.318 89.7813Z" fill="#2F2E41"/>
<path d="M149.224 68.3276C149.224 68.3276 150.459 78.5142 146.755 80.675C143.051 82.8358 151.077 95.1832 151.077 95.1832L160.646 97.6527L167.128 88.7008L165.894 79.4403C165.894 79.4403 158.485 72.0318 161.881 65.2407L149.224 68.3276Z" fill="#FFC1C7"/>
<path opacity="0.1" d="M149.224 68.3276C149.224 68.3276 150.459 78.5142 146.755 80.675C143.051 82.8358 151.077 95.1832 151.077 95.1832L160.646 97.6527L167.128 88.7008L165.894 79.4403C165.894 79.4403 158.485 72.0318 161.881 65.2407L149.224 68.3276Z" fill="black"/>
<path d="M135.334 178.905C135.334 178.905 131.63 212.552 135.334 220.577C139.039 228.603 148.916 251.137 148.916 251.137L145.83 257.62L154.164 255.768L157.56 249.285C157.56 249.285 153.547 233.542 152.929 227.986C152.312 222.429 147.682 212.243 147.682 212.243L156.325 175.509L135.334 178.905Z" fill="#FFC1C7"/>
<path d="M164.66 173.281C164.66 173.281 164.968 207.236 167.129 212.504L165.894 258.498L172.685 259.404C172.685 259.404 182.563 220.819 181.02 211.558C179.477 202.298 181.329 168.959 181.329 168.959L164.66 173.281Z" fill="#FFC1C7"/>
<path d="M154.318 72.4948C160.796 72.4948 166.048 67.2431 166.048 60.7647C166.048 54.2864 160.796 49.0347 154.318 49.0347C147.84 49.0347 142.588 54.2864 142.588 60.7647C142.588 67.2431 147.84 72.4948 154.318 72.4948Z" fill="#FFC1C7"/>
<path d="M194.293 177.602C194.293 177.602 185.959 183.159 182.563 179.146C179.168 175.133 137.495 181.615 132.247 180.381C127 179.146 135.026 159.39 135.026 149.203C135.026 141.582 137.791 129.988 139.184 124.629C139.653 122.826 139.965 121.73 139.965 121.73C139.965 121.73 143.132 112.72 142.539 108.975C142.499 108.692 142.421 108.414 142.307 108.151C142.258 108.041 142.197 107.937 142.125 107.839C140.647 105.867 136.408 91.4822 134.763 85.3054C134.495 84.3913 134.273 83.464 134.1 82.5272C134.1 81.6012 145.521 78.823 148.376 78.6903C151.235 78.5575 152.003 82.5272 152.003 82.5272C152.929 83.1446 157.251 93.9486 157.251 93.9486L161.264 83.762C161.264 83.762 160.955 81.6012 160.646 81.6012C160.338 81.6012 165.212 78.6872 165.212 78.6872C165.212 78.6872 170.216 82.2185 172.994 81.6012C175.772 80.9838 182.254 86.5401 182.254 86.5401C182.254 86.5401 170.833 115.248 175.463 121.422C180.094 127.595 194.293 177.602 194.293 177.602Z" fill="#EB850E"/>
<path d="M156.634 248.051C156.634 248.051 151.386 253.298 151.386 253.916L147.064 252.064C147.064 252.064 145.212 258.855 144.904 259.781C144.595 260.707 139.347 269.041 134.1 272.745C128.852 276.45 134.1 281.08 138.73 280.154C143.36 279.228 155.09 268.733 155.09 268.733C155.09 268.733 163.116 268.733 165.894 262.559C165.894 262.559 158.486 247.433 156.634 248.051Z" fill="#2F2E41"/>
<path d="M172.068 256.954C172.068 256.954 164.138 251.192 163.627 256.543C163.116 261.893 163.116 273.623 163.116 273.623C163.116 273.623 160.646 281.34 168.363 280.414C176.081 279.488 176.698 277.328 176.698 277.328L172.994 262.511V256.028L172.068 256.954Z" fill="#2F2E41"/>
<path opacity="0.1" d="M142.125 107.839C140.646 105.867 136.408 91.482 134.763 85.3052H136.26C136.26 85.3052 140.02 100.02 142.307 108.151C142.258 108.041 142.196 107.936 142.125 107.839Z" fill="black"/>
<path opacity="0.1" d="M162.499 128.212C162.499 128.212 158.177 128.521 142.434 125.434C141.337 125.224 140.252 124.955 139.184 124.629C139.653 122.826 139.965 121.73 139.965 121.73C139.965 121.73 143.132 112.719 142.539 108.975C143.277 111.568 143.826 113.318 143.977 113.395C144.595 113.704 164.351 117.1 167.129 118.334C169.907 119.569 162.499 128.212 162.499 128.212Z" fill="black"/>
<path opacity="0.1" d="M168.055 87.8123C168.055 87.8123 176.569 86.7618 177.097 88.1422C177.624 89.5227 179.785 102.865 180.711 104.575C181.637 106.286 181.946 116.891 178.242 117.233C174.538 117.575 169.599 113.812 170.525 110.733C171.451 107.654 168.055 87.8123 168.055 87.8123Z" fill="black"/>
<path d="M163.733 116.174C163.733 116.174 176.698 117.718 178.859 116.174C181.02 114.631 189.972 114.631 188.119 118.952C186.267 123.274 170.216 123.583 170.216 123.583H160.955L163.733 116.174Z" fill="#FFC1C7"/>
<path d="M136.26 83.1445H134.099C134.099 83.1445 129.777 84.0706 130.395 97.6528C131.012 111.235 126.691 120.187 142.434 123.274C158.177 126.361 162.498 126.052 162.498 126.052C162.498 126.052 169.907 117.409 167.128 116.174C164.35 114.939 144.594 111.544 143.977 111.235C143.36 110.926 136.26 83.1445 136.26 83.1445Z" fill="#EB850E"/>
<path d="M176.859 89.2371C176.859 89.2371 171.45 68.9448 167.128 68.9448C162.807 68.9448 157.868 69.8709 161.572 73.8838C165.276 77.8967 169.906 82.2183 170.215 84.3791C170.524 86.5399 171.759 89.6268 171.759 89.6268L176.859 89.2371Z" fill="#FFC1C7"/>
<path d="M169.29 87.8123C169.29 87.8123 177.804 86.7618 178.331 88.1422C178.859 89.5227 181.02 102.865 181.946 104.575C182.872 106.286 183.18 116.891 179.476 117.233C175.772 117.575 170.833 113.812 171.759 110.733C172.685 107.654 169.29 87.8123 169.29 87.8123Z" fill="#EB850E"/>
<path d="M151.231 60.7649C157.369 60.7649 162.344 55.7896 162.344 49.6522C162.344 43.5149 157.369 38.5396 151.231 38.5396C145.094 38.5396 140.119 43.5149 140.119 49.6522C140.119 55.7896 145.094 60.7649 151.231 60.7649Z" fill="#2F2E41"/>
</svg>

<svg width="318" height="300" fill="none" xmlns="http://www.w3.org/2000/svg"><path fill="#E5E5E5" d="M0 0h318v300H0z"/><path fill="#fff" d="M-710-222h2162v905H-710z"/><path d="M162.83 286.124c55.926 0 101.263-8.019 101.263-17.91 0-9.892-45.337-17.911-101.263-17.911s-101.264 8.019-101.264 17.911c0 9.891 45.338 17.91 101.264 17.91z" fill="#F2F2F2"/><path d="M99.357 104.493c-5.311-19.824 19.45-43.682 55.307-53.29 35.857-9.608 69.231-1.327 74.542 18.497" stroke="#3F3D56" stroke-width="2" stroke-miterlimit="10"/><path d="M186.614 55.82l-52.819 14.152c-15.165-14.807-19.882-32.413-14.153-52.819L172.461 3c-9.889 21.52-5.172 39.127 14.153 52.82z" fill="#E6E6E6"/><path d="M163.519 12.783l-29.763 7.975 1.011 3.773 29.763-7.975-1.011-3.773z" fill="#EB850E"/><path d="M163.686 24.25l-39.405 10.558.337 1.258 39.405-10.559-.337-1.257zM163.686 30.977l-39.405 10.558.337 1.258 39.405-10.559-.337-1.257zM163.686 37.704l-39.405 10.558.337 1.258 39.405-10.559-.337-1.257z" fill="#fff"/><path d="M219.356 70.997c5.569 20.783-18.984 45.42-54.841 55.028-35.857 9.608-69.44.548-75.008-20.235" stroke="#3F3D56" stroke-width="2" stroke-miterlimit="10"/><path d="M210.9 113.194c-12.415 11.716-30.082 21.526-50.796 27.076-19.86 5.322-39.253 5.851-55.457 2.415M184.33 30.79c29.564-.141 53.512 10.556 60.38 28.872M80.229 74.24c2.362-9.8 8.846-19.604 18.435-28.371" stroke="#3F3D56" stroke-width="2" stroke-miterlimit="10"/><path d="M183.858 117.97l-29.764 7.975 1.011 3.773 29.764-7.975-1.011-3.773z" fill="#EB850E"/><path d="M191.619 135.078l-39.405 10.559.337 1.257 39.405-10.558-.337-1.258z" fill="#fff"/><path d="M118.808 119.984l-52.82 14.153c-15.164-14.808-19.882-32.414-14.153-52.82l52.82-14.153c-9.89 21.52-5.172 39.127 14.153 52.82z" fill="#F2F2F2"/><path d="M93.977 76.947l-29.763 7.975 1.01 3.773 29.764-7.975-1.01-3.773z" fill="#EB850E"/><path d="M97.399 86.461L57.994 97.019l.337 1.258L97.736 87.72l-.337-1.258zM97.399 93.188l-39.405 10.559.337 1.257 39.405-10.558-.337-1.258zM97.399 99.915l-39.405 10.558.337 1.258 39.405-10.559-.337-1.257zM97.399 106.642L57.994 117.2l.337 1.258 39.405-10.559-.337-1.257z" fill="#fff"/><path d="M210.345 111.048l52.82-14.153c5.729-20.406 1.012-38.013-14.153-52.82l-52.82 14.153c19.325 13.693 24.043 31.3 14.153 52.82z" fill="#F2F2F2"/><path d="M249.424 50.674l-29.763 7.975 1.011 3.773 29.763-7.975-1.011-3.773z" fill="#EB850E"/><path d="M256.317 60.187l-39.405 10.559.337 1.257 39.405-10.558-.337-1.258z" fill="#fff"/><path d="M178.55 86.231h3.704s3.396 26.239.926 28.708c-2.469 2.47-9.26 4.013-10.186 0-.926-4.013 0-18.83 0-18.83l5.556-9.878z" fill="#EB850E"/><path d="M154.318 89.781c12.445 0 22.534-11.816 22.534-26.392 0-14.577-10.089-26.393-22.534-26.393-12.445 0-22.534 11.816-22.534 26.393 0 14.576 10.089 26.392 22.534 26.392z" fill="#2F2E41"/><path d="M149.224 68.328s1.235 10.186-2.469 12.347c-3.704 2.16 4.322 14.508 4.322 14.508l9.569 2.47 6.482-8.952-1.234-9.26s-7.409-7.41-4.013-14.2l-12.657 3.087z" fill="#FFC1C7"/><path opacity=".1" d="M149.224 68.328s1.235 10.186-2.469 12.347c-3.704 2.16 4.322 14.508 4.322 14.508l9.569 2.47 6.482-8.952-1.234-9.26s-7.409-7.41-4.013-14.2l-12.657 3.087z" fill="#000"/><path d="M135.334 178.905s-3.704 33.647 0 41.672c3.705 8.026 13.582 30.56 13.582 30.56l-3.086 6.483 8.334-1.852 3.396-6.483s-4.013-15.743-4.631-21.299c-.617-5.557-5.247-15.743-5.247-15.743l8.643-36.734-20.991 3.396zM164.66 173.281s.308 33.955 2.469 39.223l-1.235 45.994 6.791.906s9.878-38.585 8.335-47.846c-1.543-9.26.309-42.599.309-42.599l-16.669 4.322zM154.318 72.495c6.478 0 11.73-5.252 11.73-11.73 0-6.479-5.252-11.73-11.73-11.73-6.478 0-11.73 5.251-11.73 11.73 0 6.478 5.252 11.73 11.73 11.73z" fill="#FFC1C7"/><path d="M194.293 177.602s-8.334 5.557-11.73 1.544c-3.395-4.013-45.068 2.469-50.316 1.235-5.247-1.235 2.779-20.991 2.779-31.178 0-7.621 2.765-19.215 4.158-24.574.469-1.803.781-2.899.781-2.899s3.167-9.01 2.574-12.755a3.201 3.201 0 00-.232-.824 1.683 1.683 0 00-.182-.312c-1.478-1.972-5.717-16.357-7.362-22.534a27.859 27.859 0 01-.663-2.778c0-.926 11.421-3.704 14.276-3.837 2.859-.132 3.627 3.837 3.627 3.837.926.618 5.248 11.422 5.248 11.422l4.013-10.187s-.309-2.16-.618-2.16c-.308 0 4.566-2.915 4.566-2.915s5.004 3.532 7.782 2.914c2.778-.617 9.26 4.94 9.26 4.94s-11.421 28.707-6.791 34.881c4.631 6.173 18.83 56.18 18.83 56.18z" fill="#EB850E"/><path d="M156.634 248.051s-5.248 5.247-5.248 5.865l-4.322-1.852s-1.852 6.791-2.16 7.717c-.309.926-5.557 9.26-10.804 12.964-5.248 3.705 0 8.335 4.63 7.409 4.63-.926 16.36-11.421 16.36-11.421s8.026 0 10.804-6.174c0 0-7.408-15.126-9.26-14.508z" fill="#2F2E41"/><path d="M172.068 256.954s-7.93-5.762-8.441-.411c-.511 5.35-.511 17.08-.511 17.08s-2.47 7.717 5.247 6.791c7.718-.926 8.335-3.086 8.335-3.086l-3.704-14.817v-6.483l-.926.926z" fill="#2F2E41"/><path opacity=".1" d="M142.125 107.839c-1.479-1.972-5.717-16.357-7.362-22.534h1.497s3.76 14.715 6.047 22.846a1.707 1.707 0 00-.182-.312zM162.499 128.212s-4.322.309-20.065-2.778a31.275 31.275 0 01-3.25-.805c.469-1.803.781-2.899.781-2.899s3.167-9.011 2.574-12.755c.738 2.593 1.287 4.343 1.438 4.42.618.309 20.374 3.705 23.152 4.939 2.778 1.235-4.63 9.878-4.63 9.878zM168.055 87.812s8.514-1.05 9.042.33c.527 1.38 2.688 14.723 3.614 16.433.926 1.711 1.235 12.316-2.469 12.658-3.704.342-8.643-3.421-7.717-6.5.926-3.079-2.47-22.92-2.47-22.92z" fill="#000"/><path d="M163.733 116.174s12.965 1.544 15.126 0c2.161-1.543 11.113-1.543 9.26 2.778-1.852 4.322-17.903 4.631-17.903 4.631h-9.261l2.778-7.409z" fill="#FFC1C7"/><path d="M136.26 83.144h-2.161s-4.322.927-3.704 14.509c.617 13.582-3.704 22.534 12.039 25.621 15.743 3.087 20.064 2.778 20.064 2.778s7.409-8.643 4.63-9.878c-2.778-1.235-22.534-4.63-23.151-4.939-.617-.309-7.717-28.09-7.717-28.09z" fill="#EB850E"/><path d="M176.859 89.237s-5.409-20.292-9.731-20.292c-4.321 0-9.26.926-5.556 4.939 3.704 4.013 8.334 8.334 8.643 10.495.309 2.16 1.544 5.248 1.544 5.248l5.1-.39z" fill="#FFC1C7"/><path d="M169.29 87.812s8.514-1.05 9.041.33c.528 1.38 2.689 14.723 3.615 16.433.926 1.711 1.234 12.316-2.47 12.658-3.704.342-8.643-3.421-7.717-6.5.926-3.079-2.469-22.92-2.469-22.92z" fill="#EB850E"/><path d="M151.231 60.765c6.138 0 11.113-4.975 11.113-11.113 0-6.137-4.975-11.112-11.113-11.112-6.137 0-11.112 4.975-11.112 11.112 0 6.138 4.975 11.113 11.112 11.113z" fill="#2F2E41"/></svg>
